X: 03010
T: BIG ARTY'S REEL
C: Bob McQuillen 2 Sept 76
B: Bob's Note Book 03 #10
R: reel
%D:1976
Z: 2020 John Chambers <jc:trillian.mit.edu>
M: C
L: 1/8
K: A
AF \
| E2A2 A2cd | e2ef ecAc | e2a2 ecAc | BABc BdcB |\
| E2A2 ABcd | e2f2 ecAc | e2a2 ecAc | BABc A2  :|
|: cd \
| e2ec A2c2 | d2df ecAc | e2ec A2c2 | BABc B2cd |\
| efec A2c2 | d2df ecAe | a2ae fecA | B2A2 A2  :|
%%begintext align
%% "For Big Arty" Keating, a
%% good lad and fellow gun nut.
%%endtext

%%sep 1 1 500

%%sep 1 1 500

